;FLAVOR:UltiGCode
;TIME:1205
;MATERIAL:2056
;MATERIAL2:0
;NOZZLE_DIAMETER:0.4
;Generated with Cura_SteamEngine 3.1.0
M82 ; absolute extrusion mode

;LAYER_COUNT:40
;LAYER:0
M107
G0 F4500 X81.649 Y98.296 Z0.27
;TYPE:SKIRT
G1 F1800 X82.298 Y97.84 E0.07496
G1 X82.99 Y97.451 E0.14997
G1 X83.717 Y97.133 E0.22496
G1 X84.473 Y96.89 E0.3
G1 X85.249 Y96.725 E0.37497
G1 X86.037 Y96.639 E0.44988
G1 X86.5 Y96.625 E0.49366
G1 X100.5 Y96.625 E1.81666
G1 X101.292 Y96.665 E1.89159
G1 X102.077 Y96.784 E1.96662
G1 X102.481 Y96.888 E2.00605
G1 X103.249 Y96.725 E2.08024
G1 X104.037 Y96.639 E2.15515
G1 X104.5 Y96.625 E2.19892
G1 X118.5 Y96.625 E3.52192
G1 X119.292 Y96.665 E3.59686
G1 X120.077 Y96.784 E3.67189
G1 X120.481 Y96.888 E3.71131
G1 X121.249 Y96.725 E3.78551
G1 X122.037 Y96.639 E3.86041
G1 X122.5 Y96.625 E3.90419
G1 X136.5 Y96.625 E5.22719
G1 X137.292 Y96.665 E5.30213
G1 X138.077 Y96.784 E5.37716
G1 X138.845 Y96.982 E5.45211
G1 X139.59 Y97.257 E5.52715
G1 X140.303 Y97.604 E5.60209
G1 X140.978 Y98.022 E5.67711
G1 X141.607 Y98.505 E5.75206
G1 X142.184 Y99.05 E5.82706
G1 X142.704 Y99.649 E5.90202
G1 X143.16 Y100.298 E5.97698
G1 X143.549 Y100.99 E6.052
G1 X143.867 Y101.717 E6.12698
G1 X144.11 Y102.473 E6.20202
G1 X144.275 Y103.249 E6.27699
G1 X144.361 Y104.037 E6.3519
G1 X144.375 Y104.5 E6.39568
G1 X144.375 Y118.5 E7.71868
G1 X144.335 Y119.292 E7.79362
G1 X144.216 Y120.077 E7.86865
G1 X144.018 Y120.845 E7.94359
G1 X143.743 Y121.59 E8.01864
G1 X143.396 Y122.303 E8.09357
G1 X142.978 Y122.978 E8.1686
G1 X142.495 Y123.607 E8.24355
G1 X141.95 Y124.184 E8.31855
G1 X141.351 Y124.704 E8.39351
G1 X140.702 Y125.16 E8.46847
G1 X140.01 Y125.549 E8.54348
G1 X139.283 Y125.867 E8.61847
G1 X138.527 Y126.11 E8.69351
G1 X137.751 Y126.275 E8.76848
G1 X136.963 Y126.361 E8.84339
G1 X136.5 Y126.375 E8.88716
G1 X122.5 Y126.375 E10.21016
G1 X121.708 Y126.335 E10.2851
G1 X120.923 Y126.216 E10.36013
G1 X120.519 Y126.112 E10.39956
G1 X119.751 Y126.275 E10.47375
G1 X118.963 Y126.361 E10.54866
G1 X118.5 Y126.375 E10.59243
G1 X104.5 Y126.375 E11.91543
G1 X103.708 Y126.335 E11.99037
G1 X102.923 Y126.216 E12.0654
G1 X102.519 Y126.112 E12.10482
G1 X101.751 Y126.275 E12.17902
G1 X100.963 Y126.361 E12.25392
G1 X100.5 Y126.375 E12.2977
G1 X86.5 Y126.375 E13.6207
G1 X85.708 Y126.335 E13.69564
G1 X84.923 Y126.216 E13.77067
G1 X84.155 Y126.018 E13.84562
G1 X83.41 Y125.743 E13.92066
G1 X82.697 Y125.396 E13.9956
G1 X82.022 Y124.978 E14.07062
G1 X81.393 Y124.495 E14.14557
G1 X80.816 Y123.95 E14.22057
G1 X80.296 Y123.351 E14.29553
G1 X79.84 Y122.702 E14.37049
G1 X79.451 Y122.01 E14.4455
G1 X79.133 Y121.283 E14.52049
G1 X78.89 Y120.527 E14.59553
G1 X78.725 Y119.751 E14.6705
G1 X78.639 Y118.963 E14.74541
G1 X78.625 Y118.5 E14.78919
G1 X78.625 Y104.5 E16.11219
G1 X78.665 Y103.708 E16.18713
G1 X78.784 Y102.923 E16.26216
G1 X78.982 Y102.155 E16.3371
G1 X79.257 Y101.41 E16.41215
G1 X79.604 Y100.697 E16.48708
G1 X80.022 Y100.022 E16.56211
G1 X80.505 Y99.393 E16.63706
G1 X81.05 Y98.816 E16.71206
G1 X81.649 Y98.296 E16.78702
G0 F4500 X81.99 Y98.476
G1 F1800 X82.634 Y98.044 E16.8603
G1 X83.319 Y97.681 E16.93356
G1 X84.038 Y97.389 E17.0069
G1 X84.783 Y97.174 E17.08017
G1 X85.546 Y97.036 E17.15345
G1 X86.5 Y96.975 E17.24378
G1 X100.5 Y96.975 E18.56678
G1 X101.275 Y97.015 E18.64012
G1 X102.041 Y97.134 E18.71337
G1 X102.501 Y97.255 E18.75832
G1 X102.783 Y97.174 E18.78605
G1 X103.546 Y97.036 E18.85932
G1 X104.5 Y96.975 E18.94966
G1 X118.5 Y96.975 E20.27266
G1 X119.275 Y97.015 E20.34599
G1 X120.041 Y97.134 E20.41925
G1 X120.501 Y97.255 E20.4642
G1 X120.783 Y97.174 E20.49192
G1 X121.546 Y97.036 E20.5652
G1 X122.5 Y96.975 E20.65554
G1 X136.5 Y96.975 E21.97854
G1 X137.275 Y97.015 E22.05187
G1 X138.041 Y97.134 E22.12513
G1 X138.791 Y97.332 E22.19843
G1 X139.517 Y97.606 E22.27176
G1 X140.21 Y97.953 E22.345
G1 X140.864 Y98.37 E22.4183
G1 X141.472 Y98.852 E22.49162
G1 X142.027 Y99.394 E22.56492
G1 X142.524 Y99.99 E22.63826
G1 X142.956 Y100.634 E22.71154
G1 X143.319 Y101.319 E22.7848
G1 X143.611 Y102.038 E22.85814
G1 X143.826 Y102.783 E22.93141
G1 X143.964 Y103.546 E23.00469
G1 X144.025 Y104.5 E23.09502
G1 X144.025 Y118.5 E24.41802
G1 X143.985 Y119.275 E24.49136
G1 X143.866 Y120.041 E24.56461
G1 X143.668 Y120.791 E24.63792
G1 X143.394 Y121.517 E24.71125
G1 X143.047 Y122.21 E24.78449
G1 X142.63 Y122.864 E24.85778
G1 X142.148 Y123.472 E24.9311
G1 X141.606 Y124.027 E25.00441
G1 X141.01 Y124.524 E25.07775
G1 X140.366 Y124.956 E25.15103
G1 X139.681 Y125.319 E25.22429
G1 X138.962 Y125.611 E25.29763
G1 X138.217 Y125.826 E25.3709
G1 X137.454 Y125.964 E25.44417
G1 X136.5 Y126.025 E25.53451
G1 X122.5 Y126.025 E26.85751
G1 X121.725 Y125.985 E26.93085
G1 X120.959 Y125.866 E27.0041
G1 X120.499 Y125.745 E27.04905
G1 X120.217 Y125.826 E27.07678
G1 X119.454 Y125.964 E27.15005
G1 X118.5 Y126.025 E27.24039
G1 X104.5 Y126.025 E28.56339
G1 X103.725 Y125.985 E28.63672
G1 X102.959 Y125.866 E28.70998
G1 X102.499 Y125.745 E28.75493
G1 X102.217 Y125.826 E28.78265
G1 X101.454 Y125.964 E28.85593
G1 X100.5 Y126.025 E28.94626
G1 X86.5 Y126.025 E30.26926
G1 X85.725 Y125.985 E30.3426
G1 X84.959 Y125.866 E30.41585
G1 X84.209 Y125.668 E30.48916
G1 X83.483 Y125.394 E30.56249
G1 X82.79 Y125.047 E30.63573
G1 X82.136 Y124.63 E30.70902
G1 X81.528 Y124.148 E30.78234
G1 X80.973 Y123.606 E30.85565
G1 X80.476 Y123.01 E30.92899
G1 X80.044 Y122.366 E31.00227
G1 X79.681 Y121.681 E31.07553
G1 X79.389 Y120.962 E31.14887
G1 X79.174 Y120.217 E31.22214
G1 X79.036 Y119.454 E31.29541
G1 X78.975 Y118.5 E31.38575
G1 X78.975 Y104.5 E32.70875
G1 X79.015 Y103.725 E32.78209
G1 X79.134 Y102.959 E32.85534
G1 X79.332 Y102.209 E32.92864
G1 X79.606 Y101.483 E33.00198
G1 X79.953 Y100.79 E33.07521
G1 X80.37 Y100.136 E33.14851
G1 X80.852 Y99.528 E33.22183
G1 X81.394 Y98.973 E33.29514
G1 X81.99 Y98.476 E33.36848
G0 F4500 X82.329 Y98.662
G1 F1800 X82.968 Y98.255 E33.44007
G1 X83.646 Y97.917 E33.51166
G1 X84.355 Y97.653 E33.58316
G1 X85.089 Y97.465 E33.65476
G1 X85.838 Y97.356 E33.72628
G1 X86.5 Y97.325 E33.78891
G1 X100.5 Y97.325 E35.11191
G1 X101.256 Y97.365 E35.18345
G1 X102.004 Y97.484 E35.25503
G1 X102.495 Y97.617 E35.3031
G1 X103.089 Y97.465 E35.36104
G1 X103.838 Y97.356 E35.43257
G1 X104.5 Y97.325 E35.4952
G1 X118.5 Y97.325 E36.8182
G1 X119.256 Y97.365 E36.88974
G1 X120.004 Y97.484 E36.96131
G1 X120.495 Y97.617 E37.00938
G1 X121.089 Y97.465 E37.06733
G1 X121.838 Y97.356 E37.13885
G1 X122.5 Y97.325 E37.20148
G1 X136.5 Y97.325 E38.52448
G1 X137.256 Y97.365 E38.59602
G1 X138.004 Y97.484 E38.6676
G1 X138.735 Y97.682 E38.73916
G1 X139.442 Y97.956 E38.81082
G1 X140.115 Y98.302 E38.88233
G1 X140.748 Y98.718 E38.95391
G1 X141.334 Y99.198 E39.02549
G1 X141.866 Y99.737 E39.09706
G1 X142.338 Y100.329 E39.16861
G1 X142.745 Y100.968 E39.2402
G1 X143.083 Y101.646 E39.31179
G1 X143.347 Y102.355 E39.38329
G1 X143.535 Y103.089 E39.45489
G1 X143.644 Y103.838 E39.52642
G1 X143.675 Y104.5 E39.58904
G1 X143.675 Y118.5 E40.91204
G1 X143.635 Y119.256 E40.98359
G1 X143.516 Y120.004 E41.05516
G1 X143.318 Y120.735 E41.12673
G1 X143.044 Y121.442 E41.19838
G1 X142.698 Y122.115 E41.26989
G1 X142.282 Y122.748 E41.34147
G1 X141.802 Y123.334 E41.41306
G1 X141.263 Y123.866 E41.48463
G1 X140.671 Y124.338 E41.55617
G1 X140.032 Y124.745 E41.62777
G1 X139.354 Y125.083 E41.69936
G1 X138.645 Y125.347 E41.77085
G1 X137.911 Y125.535 E41.84246
G1 X137.162 Y125.644 E41.91398
G1 X136.5 Y125.675 E41.97661
G1 X122.5 Y125.675 E43.29961
G1 X121.744 Y125.635 E43.37115
G1 X120.996 Y125.516 E43.44273
G1 X120.505 Y125.383 E43.4908
G1 X119.911 Y125.535 E43.54874
G1 X119.162 Y125.644 E43.62027
G1 X118.5 Y125.675 E43.68289
G1 X104.5 Y125.675 E45.00589
G1 X103.744 Y125.635 E45.07744
G1 X102.996 Y125.516 E45.14901
G1 X102.505 Y125.383 E45.19708
G1 X101.911 Y125.535 E45.25502
G1 X101.162 Y125.644 E45.32655
G1 X100.5 Y125.675 E45.38918
G1 X86.5 Y125.675 E46.71218
G1 X85.744 Y125.635 E46.78372
G1 X84.996 Y125.516 E46.85529
G1 X84.265 Y125.318 E46.92686
G1 X83.558 Y125.044 E46.99852
G1 X82.885 Y124.698 E47.07003
G1 X82.252 Y124.282 E47.14161
G1 X81.666 Y123.802 E47.21319
G1 X81.134 Y123.263 E47.28476
G1 X80.662 Y122.671 E47.35631
G1 X80.255 Y122.032 E47.4279
G1 X79.917 Y121.354 E47.49949
G1 X79.653 Y120.645 E47.57099
G1 X79.465 Y119.911 E47.64259
G1 X79.356 Y119.162 E47.71412
G1 X79.325 Y118.5 E47.77674
G1 X79.325 Y104.5 E49.09974
G1 X79.365 Y103.744 E49.17128
G1 X79.484 Y102.996 E49.24286
G1 X79.682 Y102.265 E49.31443
G1 X79.956 Y101.558 E49.38608
G1 X80.302 Y100.885 E49.45759
G1 X80.718 Y100.252 E49.52917
G1 X81.198 Y99.666 E49.60076
G1 X81.737 Y99.134 E49.67232
G1 X82.329 Y98.662 E49.74387
G0 F4500 X82.079 Y99.3
G1 F1800 X82.667 Y98.853 E49.81367
G1 X83.3 Y98.472 E49.88349
G1 X83.97 Y98.161 E49.95329
G1 X84.67 Y97.925 E50.0231
G1 X85.391 Y97.766 E50.09287
G1 X86.126 Y97.685 E50.16275
G1 X86.5 Y97.675 E50.19811
G1 X100.5 Y97.675 E51.52111
G1 X101.238 Y97.715 E51.59095
G1 X101.966 Y97.834 E51.66066
G1 X102.5 Y97.982 E51.71302
G1 X102.67 Y97.925 E51.72997
G1 X103.391 Y97.766 E51.79974
G1 X104.126 Y97.685 E51.86962
G1 X104.5 Y97.675 E51.90497
G1 X118.5 Y97.675 E53.22797
G1 X119.238 Y97.715 E53.29782
G1 X119.966 Y97.834 E53.36753
G1 X120.5 Y97.982 E53.41989
G1 X120.67 Y97.925 E53.43684
G1 X121.391 Y97.766 E53.50661
G1 X122.126 Y97.685 E53.57649
G1 X122.5 Y97.675 E53.61184
G1 X136.5 Y97.675 E54.93484
G1 X137.238 Y97.715 E55.00468
G1 X137.966 Y97.834 E55.07439
G1 X138.678 Y98.032 E55.14423
G1 X139.364 Y98.305 E55.214
G1 X140.017 Y98.651 E55.28384
G1 X140.629 Y99.065 E55.35366
G1 X141.192 Y99.543 E55.42345
G1 X141.7 Y100.079 E55.49324
G1 X142.147 Y100.667 E55.56304
G1 X142.528 Y101.3 E55.63286
G1 X142.839 Y101.97 E55.70266
G1 X143.075 Y102.67 E55.77247
G1 X143.234 Y103.391 E55.84224
G1 X143.315 Y104.126 E55.91212
G1 X143.325 Y104.5 E55.94748
G1 X143.325 Y118.5 E57.27048
G1 X143.285 Y119.238 E57.34032
G1 X143.166 Y119.966 E57.41003
G1 X142.968 Y120.678 E57.47987
G1 X142.695 Y121.364 E57.54964
G1 X142.349 Y122.017 E57.61947
G1 X141.935 Y122.629 E57.6893
G1 X141.457 Y123.192 E57.75909
G1 X140.921 Y123.7 E57.82888
G1 X140.333 Y124.147 E57.89868
G1 X139.7 Y124.528 E57.96849
G1 X139.03 Y124.839 E58.0383
G1 X138.33 Y125.075 E58.10811
G1 X137.609 Y125.234 E58.17788
G1 X136.874 Y125.315 E58.24776
G1 X136.5 Y125.325 E58.28311
G1 X122.5 Y125.325 E59.60611
G1 X121.762 Y125.285 E59.67595
G1 X121.034 Y125.166 E59.74566
G1 X120.5 Y125.018 E59.79803
G1 X120.33 Y125.075 E59.81497
G1 X119.609 Y125.234 E59.88474
G1 X118.874 Y125.315 E59.95462
G1 X118.5 Y125.325 E59.98998
G1 X104.5 Y125.325 E61.31298
G1 X103.762 Y125.285 E61.38282
G1 X103.034 Y125.166 E61.45253
G1 X102.5 Y125.018 E61.5049
G1 X102.33 Y125.075 E61.52184
G1 X101.609 Y125.234 E61.59161
G1 X100.874 Y125.315 E61.66149
G1 X100.5 Y125.325 E61.69684
G1 X86.5 Y125.325 E63.01984
G1 X85.762 Y125.285 E63.08969
G1 X85.034 Y125.166 E63.1594
G1 X84.322 Y124.968 E63.22923
G1 X83.636 Y124.695 E63.29901
G1 X82.983 Y124.349 E63.36884
G1 X82.371 Y123.935 E63.43867
G1 X81.808 Y123.457 E63.50846
G1 X81.3 Y122.921 E63.57825
G1 X80.853 Y122.333 E63.64804
G1 X80.472 Y121.7 E63.71786
G1 X80.161 Y121.03 E63.78767
G1 X79.925 Y120.33 E63.85747
G1 X79.766 Y119.609 E63.92725
G1 X79.685 Y118.874 E63.99712
G1 X79.675 Y118.5 E64.03248
G1 X79.675 Y104.5 E65.35548
G1 X79.715 Y103.762 E65.42532
G1 X79.834 Y103.034 E65.49503
G1 X80.032 Y102.322 E65.56487
G1 X80.305 Y101.636 E65.63464
G1 X80.651 Y100.983 E65.70448
G1 X81.065 Y100.371 E65.7743
G1 X81.543 Y99.808 E65.84409
G1 X82.079 Y99.3 E65.91388
G0 F4500 X82.421 Y99.471
G1 F1800 X83.004 Y99.05 E65.98184
G1 X83.631 Y98.696 E66.04988
G1 X84.292 Y98.413 E66.11783
G1 X84.981 Y98.206 E66.18581
G1 X85.689 Y98.076 E66.25384
G1 X86.5 Y98.025 E66.33063
G1 X100.5 Y98.025 E67.65363
G1 X101.218 Y98.065 E67.72159
G1 X101.928 Y98.184 E67.78962
G1 X102.505 Y98.349 E67.84633
G1 X102.981 Y98.206 E67.8933
G1 X103.689 Y98.076 E67.96132
G1 X104.5 Y98.025 E68.03811
G1 X118.5 Y98.025 E69.36111
G1 X119.218 Y98.065 E69.42907
G1 X119.928 Y98.184 E69.4971
G1 X120.505 Y98.349 E69.55381
G1 X120.981 Y98.206 E69.60078
G1 X121.689 Y98.076 E69.6688
G1 X122.5 Y98.025 E69.7456
G1 X136.5 Y98.025 E71.0686
G1 X137.218 Y98.065 E71.13655
G1 X137.928 Y98.184 E71.20458
G1 X138.62 Y98.382 E71.2726
G1 X139.285 Y98.655 E71.34053
G1 X139.917 Y99 E71.40858
G1 X140.506 Y99.413 E71.47656
G1 X141.045 Y99.889 E71.54451
G1 X141.529 Y100.421 E71.61248
G1 X141.95 Y101.004 E71.68043
G1 X142.304 Y101.631 E71.74848
G1 X142.587 Y102.292 E71.81642
G1 X142.794 Y102.981 E71.88441
G1 X142.924 Y103.689 E71.95244
G1 X142.975 Y104.5 E72.02923
G1 X142.975 Y118.5 E73.35223
G1 X142.935 Y119.218 E73.42018
G1 X142.816 Y119.928 E73.48821
G1 X142.618 Y120.62 E73.55623
G1 X142.345 Y121.285 E73.62416
G1 X142 Y121.917 E73.69221
G1 X141.587 Y122.506 E73.76019
G1 X141.111 Y123.045 E73.82814
G1 X140.579 Y123.529 E73.89611
G1 X139.996 Y123.95 E73.96406
G1 X139.369 Y124.304 E74.03211
G1 X138.708 Y124.587 E74.10006
G1 X138.019 Y124.794 E74.16804
G1 X137.311 Y124.924 E74.23607
G1 X136.5 Y124.975 E74.31286
G1 X122.5 Y124.975 E75.63586
G1 X121.782 Y124.935 E75.70381
G1 X121.072 Y124.816 E75.77184
G1 X120.495 Y124.651 E75.82856
G1 X120.019 Y124.794 E75.87552
G1 X119.311 Y124.924 E75.94355
G1 X118.5 Y124.975 E76.02034
G1 X104.5 Y124.975 E77.34334
G1 X103.782 Y124.935 E77.4113
G1 X103.072 Y124.816 E77.47933
G1 X102.495 Y124.651 E77.53604
G1 X102.019 Y124.794 E77.58301
G1 X101.311 Y124.924 E77.65103
G1 X100.5 Y124.975 E77.72782
G1 X86.5 Y124.975 E79.05082
G1 X85.782 Y124.935 E79.11878
G1 X85.072 Y124.816 E79.18681
G1 X84.38 Y124.618 E79.25483
G1 X83.715 Y124.345 E79.32276
G1 X83.083 Y124 E79.3908
G1 X82.494 Y123.587 E79.45878
G1 X81.955 Y123.111 E79.52674
G1 X81.471 Y122.579 E79.5947
G1 X81.05 Y121.996 E79.66266
G1 X80.696 Y121.369 E79.7307
G1 X80.413 Y120.708 E79.79865
G1 X80.206 Y120.019 E79.86664
G1 X80.076 Y119.311 E79.93466
G1 X80.025 Y118.5 E80.01145
G1 X80.025 Y104.5 E81.33445
G1 X80.065 Y103.782 E81.40241
G1 X80.184 Y103.072 E81.47044
G1 X80.382 Y102.38 E81.53846
G1 X80.655 Y101.715 E81.60639
G1 X81 Y101.083 E81.67443
G1 X81.413 Y100.494 E81.74241
G1 X81.889 Y99.955 E81.81037
G1 X82.421 Y99.471 E81.87833
G0 F4500 X82.762 Y99.648
G1 F1800 X83.34 Y99.253 E81.94449
G1 X83.959 Y98.927 E82.0106
G1 X84.611 Y98.673 E82.07673
G1 X85.288 Y98.496 E82.14285
G1 X85.981 Y98.397 E82.20901
G1 X86.5 Y98.375 E82.2581
G1 X100.5 Y98.375 E83.5811
G1 X101.199 Y98.415 E83.64726
G1 X101.888 Y98.534 E83.71334
G1 X102.502 Y98.715 E83.77383
G1 X102.611 Y98.673 E83.78487
G1 X103.288 Y98.496 E83.85099
G1 X103.981 Y98.397 E83.91715
G1 X104.5 Y98.375 E83.96624
G1 X118.5 Y98.375 E85.28924
G1 X119.199 Y98.415 E85.3554
G1 X119.888 Y98.534 E85.42147
G1 X120.502 Y98.715 E85.48197
G1 X120.611 Y98.673 E85.493
G1 X121.288 Y98.496 E85.55913
G1 X121.981 Y98.397 E85.62528
G1 X122.5 Y98.375 E85.67437
G1 X136.5 Y98.375 E86.99737
G1 X137.199 Y98.415 E87.06354
G1 X137.888 Y98.534 E87.12961
G1 X138.559 Y98.732 E87.19572
G1 X139.204 Y99.004 E87.26188
G1 X139.813 Y99.348 E87.32797
G1 X140.379 Y99.76 E87.39413
G1 X140.894 Y100.233 E87.46021
G1 X141.352 Y100.762 E87.52633
G1 X141.747 Y101.34 E87.59249
G1 X142.073 Y101.959 E87.6586
G1 X142.327 Y102.611 E87.72473
G1 X142.504 Y103.288 E87.79085
G1 X142.603 Y103.981 E87.85701
G1 X142.625 Y104.5 E87.9061
G1 X142.625 Y118.5 E89.2291
G1 X142.585 Y119.199 E89.29526
G1 X142.466 Y119.888 E89.36133
G1 X142.268 Y120.559 E89.42745
G1 X141.996 Y121.204 E89.4936
G1 X141.652 Y121.813 E89.55969
G1 X141.24 Y122.379 E89.62585
G1 X140.767 Y122.894 E89.69193
G1 X140.238 Y123.352 E89.75805
G1 X139.66 Y123.747 E89.82421
G1 X139.041 Y124.073 E89.89032
G1 X138.389 Y124.327 E89.95645
G1 X137.712 Y124.504 E90.02257
G1 X137.019 Y124.603 E90.08873
G1 X136.5 Y124.625 E90.13782
G1 X122.5 Y124.625 E91.46082
G1 X121.801 Y124.585 E91.52698
G1 X121.112 Y124.466 E91.59305
G1 X120.498 Y124.285 E91.65355
G1 X120.389 Y124.327 E91.66459
G1 X119.712 Y124.504 E91.73071
G1 X119.019 Y124.603 E91.79687
G1 X118.5 Y124.625 E91.84595
G1 X104.5 Y124.625 E93.16895
G1 X103.801 Y124.585 E93.23512
G1 X103.112 Y124.466 E93.30119
G1 X102.498 Y124.285 E93.36168
